packages/tokens/icons/generateReportGraph/size24Px.svg

<svg viewBox="0 0 24 24" fill="none" xmlns="http://www.w3.org/2000/svg" width="1em" height="1em"><path d="M15.5 2.90385V5.53846C15.5 6.09075 15.9477 6.53846 16.5 6.53846H18.875M19.5 7.5V7.32843C19.5 6.79799 19.2893 6.28929 18.9142 5.91421L16.0858 3.08579C15.7107 2.71071 15.202 2.5 14.6716 2.5L6.5 2.5C5.39543 2.5 4.5 3.39543 4.5 4.5L4.5 19.5C4.5 20.6046 5.39543 21.5 6.5 21.5H17.5C18.6046 21.5 19.5 20.6046 19.5 19.5V18.5" stroke="currentColor" stroke-linecap="round"/><path d="M7.5 6.5H13C13.2761 6.5 13.5 6.72386 13.5 7V8C13.5 8.27614 13.2761 8.5 13 8.5H7.5V6.5Z" stroke="currentColor"/><path d="M7.5 14.5H11C11.2761 14.5 11.5 14.7239 11.5 15V16C11.5 16.2761 11.2761 16.5 11 16.5H7.5V14.5Z" stroke="currentColor"/><path d="M7.5 10.5H10C10.2761 10.5 10.5 10.7239 10.5 11V12C10.5 12.2761 10.2761 12.5 10 12.5H7.5V10.5Z" stroke="currentColor"/><path d="M7.5 5.5L7.5 18.5" stroke="currentColor" stroke-linecap="round"/><circle cx="18" cy="13" r="3.5" stroke="currentColor"/><path d="M16.5 13H19.5M18 11.5L18 14.5" stroke="currentColor" stroke-linecap="round"/></svg>

<svg xmlns="http://www.w3.org/2000/svg" fill="none" viewBox="0 0 24 24" width="1em" height="1em"><path stroke="currentColor" stroke-linecap="round" d="M15.5 2.904v2.634a1 1 0 0 0 1 1h2.375m.625.962v-.172a2 2 0 0 0-.586-1.414l-2.828-2.828a2 2 0 0 0-1.414-.586H6.5a2 2 0 0 0-2 2v15a2 2 0 0 0 2 2h11a2 2 0 0 0 2-2v-1"/><path stroke="currentColor" d="M7.5 6.5H13a.5.5 0 0 1 .5.5v1a.5.5 0 0 1-.5.5H7.5v-2Zm0 8H11a.5.5 0 0 1 .5.5v1a.5.5 0 0 1-.5.5H7.5v-2Zm0-4H10a.5.5 0 0 1 .5.5v1a.5.5 0 0 1-.5.5H7.5v-2Z"/><path stroke="currentColor" stroke-linecap="round" d="M7.5 5.5v13"/><circle cx="18" cy="13" r="3.5" stroke="currentColor"/><path stroke="currentColor" stroke-linecap="round" d="M16.5 13h3M18 11.5v3"/></svg>
